images_elementary_svg/cmd/ca/lc_bold.svg

<svg height="24" width="24" xmlns="http://www.w3.org/2000/svg" xmlns:xlink="http://www.w3.org/1999/xlink"><radialGradient id="a" cx="11.904744" cy="4.36105" gradientTransform="matrix(.01593237 2.9166493 -2.3215578 .01268165 21.839502 -31.91211)" gradientUnits="userSpaceOnUse" r="6.758298"><stop offset="0" stop-color="#737373"/><stop offset=".26238" stop-color="#636363"/><stop offset=".704952" stop-color="#4b4b4b"/><stop offset="1" stop-color="#3f3f3f"/></radialGradient><radialGradient id="b" cx="40" cy="43.5" gradientTransform="matrix(1 0 0 .75 -29.567676 12.375)" gradientUnits="userSpaceOnUse" r="2" xlink:href="#e"/><radialGradient id="c" cx="9" cy="43.5" gradientTransform="matrix(1 0 0 .75 -4 12.375)" gradientUnits="userSpaceOnUse" r="2" xlink:href="#e"/><linearGradient id="d" gradientUnits="userSpaceOnUse" x1="17" x2="17" xlink:href="#f" y1="46.5" y2="43.5"/><linearGradient id="e"><stop offset="0"/><stop offset="1" stop-opacity="0"/></linearGradient><linearGradient id="f" gradientUnits="userSpaceOnUse" x1="17" x2="17" y1="46.5" y2="43.5"><stop offset="0" stop-opacity="0"/><stop offset=".5"/><stop offset="1" stop-opacity="0"/></linearGradient><radialGradient id="g" cx="40" cy="43.5" gradientTransform="matrix(1 0 0 .75 -32.283838 12.375)" gradientUnits="userSpaceOnUse" r="2" xlink:href="#e"/><g transform="matrix(.73633307 0 0 1 11.318335 -24)"><path d="m10.432324 43.5v3h.5c.831 0 1.5-.669 1.5-1.5s-.669-1.5-1.5-1.5z" fill="url(#b)" opacity=".2"/><path d="m4.40625 43.5c-.7790625 0-1.40625.627187-1.40625 1.40625v.1875c0 .779063.6271875 1.40625 1.40625 1.40625h.59375v-3z" fill="url(#c)" opacity=".2"/><path d="m5 43.5h5.432324v3h-5.432324z" fill="url(#d)" opacity=".2"/></g><g transform="matrix(.73633307 0 0 1 2.318335 -24)"><path d="m7.7161622 43.5v3h.5c.831 0 1.5-.669 1.5-1.5s-.669-1.5-1.5-1.5z" fill="url(#g)" opacity=".2"/><path d="m4.40625 43.5c-.7790625 0-1.40625.627187-1.40625 1.40625v.1875c0 .779063.6271875 1.40625 1.40625 1.40625h.59375v-3z" fill="url(#c)" opacity=".2"/><path d="m5 43.5h2.7161622v3h-2.7161622z" fill="url(#f)" opacity=".2"/></g><path d="m19.499993 20.501023h-4.301232l-6.7765496-12.1057642h-.098501c.043779.5618234.080261 1.1199985.1094461 1.6745252.029186.474267.051075.974071.065668 1.499412.021889.518045.032834.985016.032834 1.400911v7.529893h-3.0316586v-16.0010232h4.2793435l6.7656046 11.9853732h.06567c-.02189-.554526-.04742-1.101757-.07661-1.641692-.0073-.233484-.01824-.470617-.03283-.711399-.0073-.248078-.01459-.492507-.02189-.733289-.0073-.248078-.01459-.485211-.02189-.7114v-.612898-7.573672h3.042602z" fill="url(#a)" stroke="#0a0a0a" stroke-opacity=".6"/><path d="m5.5 4.4980469v1.5h4.2792969l6.2832031 11.9843751h.064453c-.020169-.510959-.043948-1.01315-.070312-1.511719l-6.2773441-11.9726561zm10.474609 0v1.5h3.041016v-1.5zm-7.6503902 5.3964843c.0437784.5618238.0801893 1.1212538.109375 1.6757808.0291856.474267.0498603.972706.0644531 1.498047.0218892.518045.0332031.986449.0332031 1.402344v-1.5c0-.415895-.0113139-.884299-.0332031-1.402344-.0145928-.525341-.0352675-1.02378-.0644531-1.498047-.0030618-.058172-.0084965-.117528-.0117188-.1757808z" fill="#fff" opacity=".2"/></svg>

<?xml version="1.0" encoding="UTF-8" standalone="no"?>
<svg
   xmlns:dc="http://purl.org/dc/elements/1.1/"
   xmlns:cc="http://creativecommons.org/ns#"
   xmlns:rdf="http://www.w3.org/1999/02/22-rdf-syntax-ns#"
   xmlns:svg="http://www.w3.org/2000/svg"
   xmlns="http://www.w3.org/2000/svg"
   xmlns:xlink="http://www.w3.org/1999/xlink"
   xmlns:sodipodi="http://sodipodi.sourceforge.net/DTD/sodipodi-0.dtd"
   xmlns:inkscape="http://www.inkscape.org/namespaces/inkscape"
   height="24"
   width="24"
   version="1.1"
   id="svg39"
   sodipodi:docname="lc_bold.svg"
   inkscape:version="0.92.4 (unknown)"
   inkscape:export-filename="/home/rizmut/Dokumen/Rizmut/Github/libreoffice-style-elementary/images_elementary/cmd/ca/lc_bold.png"
   inkscape:export-xdpi="96"
   inkscape:export-ydpi="96">
  <metadata
     id="metadata45">
    <rdf:RDF>
      <cc:Work
         rdf:about="">
        <dc:format>image/svg+xml</dc:format>
        <dc:type
           rdf:resource="http://purl.org/dc/dcmitype/StillImage" />
      </cc:Work>
    </rdf:RDF>
  </metadata>
  <defs
     id="defs43">
    <radialGradient
       inkscape:collect="always"
       xlink:href="#c"
       id="radialGradient884"
       cx="11.904744"
       cy="4.3610497"
       fx="11.904744"
       fy="4.3610497"
       r="6.7582979"
       gradientTransform="matrix(0.01593237,2.9166493,-2.3215578,0.01268165,21.839502,-31.91211)"
       gradientUnits="userSpaceOnUse" />
    <radialGradient
       inkscape:collect="always"
       xlink:href="#a"
       id="radialGradient934"
       gradientUnits="userSpaceOnUse"
       gradientTransform="matrix(1,0,0,0.75,-29.567676,12.375)"
       cx="40"
       cy="43.5"
       r="2" />
    <radialGradient
       inkscape:collect="always"
       xlink:href="#a"
       id="radialGradient936"
       gradientUnits="userSpaceOnUse"
       gradientTransform="matrix(1,0,0,0.75,-4,12.375)"
       cx="9"
       cy="43.5"
       r="2" />
    <linearGradient
       inkscape:collect="always"
       xlink:href="#b"
       id="linearGradient938"
       gradientUnits="userSpaceOnUse"
       x1="17"
       y1="46.5"
       x2="17"
       y2="43.5" />
  </defs>
  <sodipodi:namedview
     pagecolor="#ffffff"
     bordercolor="#666666"
     borderopacity="1"
     objecttolerance="10"
     gridtolerance="10"
     guidetolerance="10"
     inkscape:pageopacity="0"
     inkscape:pageshadow="2"
     inkscape:window-width="1366"
     inkscape:window-height="714"
     id="namedview41"
     showgrid="true"
     inkscape:snap-global="true"
     inkscape:zoom="16"
     inkscape:cx="15.239156"
     inkscape:cy="4.8067984"
     inkscape:window-x="0"
     inkscape:window-y="28"
     inkscape:window-maximized="1"
     inkscape:current-layer="svg39">
    <inkscape:grid
       type="xygrid"
       id="grid852" />
  </sodipodi:namedview>
  <linearGradient
     id="a">
    <stop
       offset="0"
       id="stop2" />
    <stop
       offset="1"
       stop-opacity="0"
       id="stop4" />
  </linearGradient>
  <linearGradient
     id="b"
     gradientUnits="userSpaceOnUse"
     x1="17"
     x2="17"
     y1="46.5"
     y2="43.5">
    <stop
       offset="0"
       stop-opacity="0"
       id="stop7" />
    <stop
       offset=".5"
       id="stop9" />
    <stop
       offset="1"
       stop-opacity="0"
       id="stop11" />
  </linearGradient>
  <radialGradient
     id="c"
     cx="13.325464"
     cy="8.331412"
     gradientTransform="matrix(-3.7117719,0.11187051,-0.21033005,-6.7825606,47.356407,56.934853)"
     gradientUnits="userSpaceOnUse"
     r="5.349211">
    <stop
       offset="0"
       stop-color="#737373"
       id="stop14" />
    <stop
       offset=".26238"
       stop-color="#636363"
       id="stop16" />
    <stop
       offset=".704952"
       stop-color="#4b4b4b"
       id="stop18" />
    <stop
       offset="1"
       stop-color="#3f3f3f"
       id="stop20" />
  </radialGradient>
  <radialGradient
     id="d"
     cx="40"
     cy="43.5"
     gradientTransform="matrix(1,0,0,0.75,-32.283838,12.375)"
     gradientUnits="userSpaceOnUse"
     r="2"
     xlink:href="#a" />
  <radialGradient
     id="e"
     cx="9"
     cy="43.5"
     gradientTransform="matrix(1,0,0,0.75,-4,12.375)"
     gradientUnits="userSpaceOnUse"
     r="2"
     xlink:href="#a" />
  <g
     id="g932"
     transform="matrix(0.73633307,0,0,1,11.318335,-24)">
    <path
       inkscape:connector-curvature="0"
       style="opacity:0.2;fill:url(#radialGradient934)"
       id="path926"
       d="m 10.432324,43.5 v 3 h 0.5 c 0.831,0 1.5,-0.669 1.5,-1.5 0,-0.831 -0.669,-1.5 -1.5,-1.5 z" />
    <path
       inkscape:connector-curvature="0"
       style="opacity:0.2;fill:url(#radialGradient936)"
       id="path928"
       d="M 4.40625,43.5 C 3.6271875,43.5 3,44.127187 3,44.90625 v 0.1875 C 3,45.872813 3.6271875,46.5 4.40625,46.5 H 5 v -3 z" />
    <path
       sodipodi:nodetypes="ccccc"
       inkscape:connector-curvature="0"
       style="opacity:0.2;fill:url(#linearGradient938)"
       id="path930"
       d="m 5,43.5 h 5.432324 v 3 H 5 Z" />
  </g>
  <g
     transform="matrix(0.73633307,0,0,1,2.3183346,-24)"
     id="g31">
    <path
       d="m 7.7161622,43.5 v 3 h 0.5 c 0.831,0 1.5,-0.669 1.5,-1.5 0,-0.831 -0.669,-1.5 -1.5,-1.5 z"
       id="path25"
       style="opacity:0.2;fill:url(#d)"
       inkscape:connector-curvature="0" />
    <path
       d="M 4.40625,43.5 C 3.6271875,43.5 3,44.127187 3,44.90625 v 0.1875 C 3,45.872813 3.6271875,46.5 4.40625,46.5 H 5 v -3 z"
       id="path27"
       style="opacity:0.2;fill:url(#e)"
       inkscape:connector-curvature="0" />
    <path
       d="m 5,43.5 h 2.7161622 v 3 H 5 Z"
       id="path29"
       style="opacity:0.2;fill:url(#b)"
       inkscape:connector-curvature="0"
       sodipodi:nodetypes="ccccc" />
  </g>
  <g
     aria-label="N"
     style="font-style:normal;font-weight:normal;font-size:22.41456604px;line-height:1.25;font-family:sans-serif;letter-spacing:0px;word-spacing:0px;fill:url(#radialGradient884);fill-opacity:1;stroke:#0a0a0a;stroke-width:1;stroke-miterlimit:4;stroke-dasharray:none;stroke-opacity:0.6"
     id="text856">
    <path
       d="M 19.499993,20.501023 H 15.198761 L 8.4222114,8.3952588 h -0.098501 c 0.043779,0.5618234 0.080261,1.1199985 0.1094461,1.6745252 0.029186,0.474267 0.051075,0.974071 0.065668,1.499412 0.021889,0.518045 0.032834,0.985016 0.032834,1.400911 V 20.5 H 5.4999999 V 4.4989768 H 9.7793434 L 16.544948,16.48435 h 0.06567 c -0.02189,-0.554526 -0.04742,-1.101757 -0.07661,-1.641692 -0.0073,-0.233484 -0.01824,-0.470617 -0.03283,-0.711399 -0.0073,-0.248078 -0.01459,-0.492507 -0.02189,-0.733289 -0.0073,-0.248078 -0.01459,-0.485211 -0.02189,-0.7114 V 12.073672 4.5 H 19.5 Z"
       style="font-style:normal;font-variant:normal;font-weight:bold;font-stretch:normal;font-family:'Droid Sans';-inkscape-font-specification:'Droid Sans Bold';fill:url(#radialGradient884);fill-opacity:1;stroke:#0a0a0a;stroke-width:1;stroke-miterlimit:4;stroke-dasharray:none;stroke-opacity:0.6"
       id="path843"
       inkscape:connector-curvature="0"
       sodipodi:nodetypes="ccccccscccccccccccccc" />
  </g>
  <path
     style="font-style:normal;font-weight:normal;font-size:22.41456604px;line-height:1.25;font-family:sans-serif;letter-spacing:0px;word-spacing:0px;fill:#ffffff;fill-opacity:1;stroke:none;stroke-width:1;stroke-opacity:1;stroke-miterlimit:4;stroke-dasharray:none;opacity:0.2"
     d="M 5.5 4.4980469 L 5.5 5.9980469 L 9.7792969 5.9980469 L 16.0625 17.982422 L 16.126953 17.982422 C 16.106784 17.471463 16.083005 16.969272 16.056641 16.470703 L 9.7792969 4.4980469 L 5.5 4.4980469 z M 15.974609 4.4980469 L 15.974609 5.9980469 L 19.015625 5.9980469 L 19.015625 4.4980469 L 15.974609 4.4980469 z M 8.3242188 9.8945312 C 8.3679972 10.456355 8.4044081 11.015785 8.4335938 11.570312 C 8.4627794 12.044579 8.4834541 12.543018 8.4980469 13.068359 C 8.5199361 13.586404 8.53125 14.054808 8.53125 14.470703 L 8.53125 12.970703 C 8.53125 12.554808 8.5199361 12.086404 8.4980469 11.568359 C 8.4834541 11.043018 8.4627794 10.544579 8.4335938 10.070312 C 8.430532 10.01214 8.4250973 9.952784 8.421875 9.8945312 L 8.3242188 9.8945312 z "
     id="text892" />
</svg>
